X: 23498
T: Liam And Diana's
R: waltz
M: 3/4
K: Emajor
B2 e2 d2|e4 B2|e4 f2|f4 ga|~g2 f2 e2|B2 e2 d2|c2 B2 G2|F4 E2|
B2 e2 d2|e4 B2|e4 f2|f4 ga|~g2 f2 e2|g2 b2 g2|e2 f2 d2|1 e6|e6:|2 e2 B2 d2||
e2 d2 B2|B2 G2 D2|C3 D E2|B,4 B,2|B,2 E2 G2|B2 A2 G2|E2 G2 E2|B4 d2|
e2 d2 B2|B2 G2 D2|C3 D E2|B,4 B,2|C2 D2 E2|E2 F2 G2|B6|B6||

